icons/plexis/48/gnome-schedule.svg

<svg viewBox="0 0 48 48" xmlns="http://www.w3.org/2000/svg" xmlns:xlink="http://www.w3.org/1999/xlink">
  <linearGradient id="a" gradientTransform="matrix(0 -1 1 0 -.0000015 47.999998)" gradientUnits="userSpaceOnUse" x1="1" x2="47">
    <stop offset="0" stop-color="#ddd"/>
    <stop offset="1" stop-color="#e7e7e7"/>
  </linearGradient>
  <path d="m47 24c0 22.703-.297 23-23 23-22.703 0-23-.297-23-23 0-22.703.297-23 23-23 22.703 0 23 .297 23 23z" fill="url(#a)"/>
  <g transform="scale(3.543307)">
    <path d="m25 10c-8.284 0-15 6.716-15 15 0 8.284 6.716 15 15 15 8.284 0 15-6.716 15-15 0-8.284-6.716-15-15-15zm0 4c6.075 0 11 4.925 11 11 0 6.075-4.925 11-11 11-6.075 0-11-4.925-11-11 0-6.075 4.925-11 11-11zm0 1c-3.745 0-6.996 2.047-8.709 5.094l-.291-.094 7.297 6.04a2 2 0 0 0  .99.82l.074.063.012-.031a2 2 0 0 0  .627.104 2 2 0 0 0  .758-.152l9.242-1.848-9.234-1.848a2 2 0 0 0-.059-.021l.004-.001-.711-.229v-7.893z" opacity=".1" transform="scale(.28222223)"/>
    <path d="m24 14c-3.772 0-7.05 2.073-8.75 5.156l8.75 4.844z" fill="#ee7923" transform="scale(.28222223)"/>
    <path d="m24 9c-8.284 0-15 6.716-15 15 0 8.284 6.716 15 15 15 8.284 0 15-6.716 15-15 0-8.284-6.716-15-15-15zm0 4c6.075 0 11 4.925 11 11 0 6.075-4.925 11-11 11-6.075 0-11-4.925-11-11 0-6.075 4.925-11 11-11z" fill="#f2c046" transform="scale(.28222223)"/>
    <path d="m24 22l10 2-10 2z" fill="#333" transform="scale(.28222223)"/>
    <path d="m24.711 22.12l-1.351 3.808-8.361-6.928z" fill="#333" transform="scale(.28222223)"/>
    <path d="m-26 11a1.5 2 0 1 1-3 0 1.5 2 0 1 1  3 0z" fill="#333" transform="matrix(.37629631 0 0 .28222223 17.121482 3.668889)"/>
  </g>
</svg>

<svg xmlns="http://www.w3.org/2000/svg" viewBox="0 0 48 48">
 <defs>
  <linearGradient id="linearGradient3764" x1="1" x2="47" gradientUnits="userSpaceOnUse" gradientTransform="matrix(0,-1,1,0,-1.5e-6,47.999998)">
   <stop style="stop-color:#ddd;stop-opacity:1"/>
   <stop offset="1" style="stop-color:#e7e7e7;stop-opacity:1"/>
  </linearGradient>
 </defs>
 <g>
  
  
  
 </g>
 <g>
  <path d="m 47,24 C 47,46.703 46.703,47 24,47 1.297,47 1,46.703 1,24 1,1.297 1.297,1 24,1 46.703,1 47,1.297 47,24 z" style="fill:url(#linearGradient3764);fill-opacity:1"/>
 </g>
 <g>
  
 </g>
 <g transform="scale(3.543307,3.543307)">
  <path d="m 25,10 c -8.284,0 -15,6.716 -15,15 0,8.284 6.716,15 15,15 8.284,0 15,-6.716 15,-15 0,-8.284 -6.716,-15 -15,-15 z m 0,4 c 6.075,0 11,4.925 11,11 0,6.075 -4.925,11 -11,11 -6.075,0 -11,-4.925 -11,-11 0,-6.075 4.925,-11 11,-11 z m 0,1 c -3.745,0 -6.996,2.047 -8.709,5.094 L 16,20 l 7.297,6.04 a 2,2 0 0 0 0.99,0.82 l 0.074,0.063 0.012,-0.031 A 2,2 0 0 0 25,26.996 2,2 0 0 0 25.758,26.844 L 35,24.996 25.766,23.148 A 2,2 0 0 0 25.707,23.127 L 25.711,23.126 25,22.897 25,15.004 Z" transform="scale(0.28222223,0.28222223)" style="fill:#000;opacity:0.1;fill-opacity:1;stroke:none"/>
  <path d="m 24,14 c -3.772,0 -7.05,2.073 -8.75,5.156 L 24,24 24,14 Z" transform="scale(0.28222223,0.28222223)" style="fill:#ee7923;fill-opacity:1;stroke:none"/>
  <path d="M 24,9 C 15.716,9 9,15.716 9,24 9,32.284 15.716,39 24,39 32.284,39 39,32.284 39,24 39,15.716 32.284,9 24,9 Z m 0,4 c 6.075,0 11,4.925 11,11 0,6.075 -4.925,11 -11,11 -6.075,0 -11,-4.925 -11,-11 0,-6.075 4.925,-11 11,-11 z" transform="scale(0.28222223,0.28222223)" style="fill:#f2c046;opacity:1;fill-opacity:1;stroke:none"/>
  <path d="m 24 22 10 2 -10 2 z" transform="scale(0.28222223,0.28222223)" style="fill:#333;fill-opacity:1;stroke:none"/>
  <path d="M 24.711,22.12 23.36,25.928 14.999,19 Z" transform="scale(0.28222223,0.28222223)" style="fill:#333;fill-opacity:1;stroke:none"/>
  <path d="m -26 11 a 1.5 2 0 1 1 -3 0 1.5 2 0 1 1 3 0 z" transform="matrix(0.37629631,0,0,0.28222223,17.121482,3.668889)" style="fill:#333;fill-opacity:1;stroke:none"/>
 </g>
</svg>
